images/16758985.svg

<?xml version="1.0" encoding="UTF-8"?>
<svg xmlns="http://www.w3.org/2000/svg" xmlns:xlink="http://www.w3.org/1999/xlink" width="300pt" height="300pt" viewBox="0 0 300 300" version="1.1">
<defs>
<g>
<symbol overflow="visible" id="glyph0-0">
<path style="stroke:none;" d="M 0.453125 1.59375 L 0.453125 -6.34375 L 4.953125 -6.34375 L 4.953125 1.59375 Z M 0.953125 1.09375 L 4.453125 1.09375 L 4.453125 -5.84375 L 0.953125 -5.84375 Z M 0.953125 1.09375 "/>
</symbol>
<symbol overflow="visible" id="glyph0-1">
<path style="stroke:none;" d="M 3.546875 -5.953125 C 2.898438 -5.953125 2.382812 -5.710938 2 -5.234375 C 1.625 -4.753906 1.4375 -4.101562 1.4375 -3.28125 C 1.4375 -2.445312 1.625 -1.789062 2 -1.3125 C 2.382812 -0.832031 2.898438 -0.59375 3.546875 -0.59375 C 4.191406 -0.59375 4.703125 -0.832031 5.078125 -1.3125 C 5.453125 -1.789062 5.640625 -2.445312 5.640625 -3.28125 C 5.640625 -4.101562 5.453125 -4.753906 5.078125 -5.234375 C 4.703125 -5.710938 4.191406 -5.953125 3.546875 -5.953125 Z M 3.546875 -6.6875 C 4.460938 -6.6875 5.195312 -6.375 5.75 -5.75 C 6.300781 -5.132812 6.578125 -4.3125 6.578125 -3.28125 C 6.578125 -2.238281 6.300781 -1.410156 5.75 -0.796875 C 5.195312 -0.179688 4.460938 0.125 3.546875 0.125 C 2.617188 0.125 1.878906 -0.179688 1.328125 -0.796875 C 0.773438 -1.410156 0.5 -2.238281 0.5 -3.28125 C 0.5 -4.3125 0.773438 -5.132812 1.328125 -5.75 C 1.878906 -6.375 2.617188 -6.6875 3.546875 -6.6875 Z M 3.546875 -6.6875 "/>
</symbol>
<symbol overflow="visible" id="glyph0-2">
<path style="stroke:none;" d="M 0.890625 -6.5625 L 2.078125 -6.5625 L 4.984375 -1.078125 L 4.984375 -6.5625 L 5.84375 -6.5625 L 5.84375 0 L 4.65625 0 L 1.75 -5.484375 L 1.75 0 L 0.890625 0 Z M 0.890625 -6.5625 "/>
</symbol>
<symbol overflow="visible" id="glyph0-3">
<path style="stroke:none;" d="M 0.890625 -6.5625 L 4.65625 -6.5625 L 4.65625 -5.8125 L 1.765625 -5.8125 L 1.765625 -3.875 L 4.375 -3.875 L 4.375 -3.140625 L 1.765625 -3.140625 L 1.765625 0 L 0.890625 0 Z M 0.890625 -6.5625 "/>
</symbol>
</g>
</defs>
<g id="surface47193">
<rect x="0" y="0" width="300" height="300" style="fill:rgb(100%,100%,100%);fill-opacity:1;stroke:none;"/>
<path style="fill:none;stroke-width:1.2;stroke-linecap:butt;stroke-linejoin:miter;stroke:rgb(0%,0%,0%);stroke-opacity:1;stroke-miterlimit:10;" d="M 35.25 172.535156 L 43.609375 176.988281 "/>
<path style="fill:none;stroke-width:1.2;stroke-linecap:butt;stroke-linejoin:miter;stroke:rgb(100%,0%,0%);stroke-opacity:1;stroke-miterlimit:10;" d="M 43.609375 176.988281 L 51.964844 181.441406 "/>
<path style="fill:none;stroke-width:1.2;stroke-linecap:butt;stroke-linejoin:miter;stroke:rgb(100%,0%,0%);stroke-opacity:1;stroke-miterlimit:10;" d="M 51.964844 181.441406 L 60 176.429688 "/>
<path style="fill:none;stroke-width:1.2;stroke-linecap:butt;stroke-linejoin:miter;stroke:rgb(0%,0%,0%);stroke-opacity:1;stroke-miterlimit:10;" d="M 60 176.429688 L 68.035156 171.417969 "/>
<path style=" stroke:none;fill-rule:nonzero;fill:rgb(100%,100%,100%);fill-opacity:1;" d="M 47.964844 175.941406 L 55.964844 175.941406 L 55.964844 186.941406 L 47.964844 186.941406 Z M 47.964844 175.941406 "/>
<g style="fill:rgb(100%,0%,0%);fill-opacity:1;">
  <use xlink:href="#glyph0-1" x="47.964844" y="184.604492"/>
</g>
<path style="fill:none;stroke-width:1.2;stroke-linecap:butt;stroke-linejoin:miter;stroke:rgb(0%,0%,0%);stroke-opacity:1;stroke-miterlimit:10;" d="M 68.035156 171.417969 L 67.390625 152.488281 "/>
<path style="fill:none;stroke-width:1.2;stroke-linecap:butt;stroke-linejoin:miter;stroke:rgb(0%,0%,0%);stroke-opacity:1;stroke-miterlimit:10;" d="M 72.425781 169.371094 L 71.90625 154.226562 "/>
<path style="fill:none;stroke-width:1.2;stroke-linecap:butt;stroke-linejoin:miter;stroke:rgb(0%,0%,0%);stroke-opacity:1;stroke-miterlimit:10;" d="M 84.75 180.320312 L 68.035156 171.417969 "/>
<path style="fill:none;stroke-width:1.2;stroke-linecap:butt;stroke-linejoin:miter;stroke:rgb(0%,0%,0%);stroke-opacity:1;stroke-miterlimit:10;" d="M 67.390625 152.488281 L 83.460938 142.464844 "/>
<path style="fill:none;stroke-width:1.2;stroke-linecap:butt;stroke-linejoin:miter;stroke:rgb(0%,0%,0%);stroke-opacity:1;stroke-miterlimit:10;" d="M 83.460938 142.464844 L 100.175781 151.367188 "/>
<path style="fill:none;stroke-width:1.2;stroke-linecap:butt;stroke-linejoin:miter;stroke:rgb(0%,0%,0%);stroke-opacity:1;stroke-miterlimit:10;" d="M 83.035156 147.285156 L 96.410156 154.410156 "/>
<path style="fill:none;stroke-width:1.2;stroke-linecap:butt;stroke-linejoin:miter;stroke:rgb(0%,0%,0%);stroke-opacity:1;stroke-miterlimit:10;" d="M 100.175781 151.367188 L 100.820312 170.296875 "/>
<path style="fill:none;stroke-width:1.2;stroke-linecap:butt;stroke-linejoin:miter;stroke:rgb(0%,0%,0%);stroke-opacity:1;stroke-miterlimit:10;" d="M 100.175781 151.367188 L 116.246094 141.34375 "/>
<path style="fill:none;stroke-width:1.2;stroke-linecap:butt;stroke-linejoin:miter;stroke:rgb(0%,0%,0%);stroke-opacity:1;stroke-miterlimit:10;" d="M 100.820312 170.296875 L 84.75 180.320312 "/>
<path style="fill:none;stroke-width:1.2;stroke-linecap:butt;stroke-linejoin:miter;stroke:rgb(0%,0%,0%);stroke-opacity:1;stroke-miterlimit:10;" d="M 96.855469 167.519531 L 84 175.539062 "/>
<path style="fill:none;stroke-width:1.2;stroke-linecap:butt;stroke-linejoin:miter;stroke:rgb(0%,0%,0%);stroke-opacity:1;stroke-miterlimit:10;" d="M 116.246094 141.34375 L 132.960938 150.25 "/>
<path style="fill:none;stroke-width:1.2;stroke-linecap:butt;stroke-linejoin:miter;stroke:rgb(0%,0%,0%);stroke-opacity:1;stroke-miterlimit:10;" d="M 115.820312 146.167969 L 129.195312 153.292969 "/>
<path style="fill:none;stroke-width:1.2;stroke-linecap:butt;stroke-linejoin:miter;stroke:rgb(0%,0%,0%);stroke-opacity:1;stroke-miterlimit:10;" d="M 132.960938 150.25 L 140.996094 145.238281 "/>
<path style="fill:none;stroke-width:1.2;stroke-linecap:butt;stroke-linejoin:miter;stroke:rgb(0%,0%,100%);stroke-opacity:1;stroke-miterlimit:10;" d="M 140.996094 145.238281 L 149.03125 140.226562 "/>
<path style="fill:none;stroke-width:1.2;stroke-linecap:butt;stroke-linejoin:miter;stroke:rgb(0%,0%,100%);stroke-opacity:1;stroke-miterlimit:10;" d="M 149.03125 140.226562 L 157.390625 144.675781 "/>
<path style="fill:none;stroke-width:1.2;stroke-linecap:butt;stroke-linejoin:miter;stroke:rgb(0%,0%,0%);stroke-opacity:1;stroke-miterlimit:10;" d="M 157.390625 144.675781 L 165.746094 149.128906 "/>
<path style="fill:none;stroke-width:1.2;stroke-linecap:butt;stroke-linejoin:miter;stroke:rgb(0%,0%,100%);stroke-opacity:1;stroke-miterlimit:10;" d="M 149.03125 140.226562 L 148.707031 130.761719 "/>
<path style="fill:none;stroke-width:1.2;stroke-linecap:butt;stroke-linejoin:miter;stroke:rgb(0%,0%,0%);stroke-opacity:1;stroke-miterlimit:10;" d="M 148.707031 130.761719 L 148.382812 121.296875 "/>
<path style=" stroke:none;fill-rule:nonzero;fill:rgb(100%,100%,100%);fill-opacity:1;" d="M 146.03125 134.726562 L 153.03125 134.726562 L 153.03125 145.726562 L 146.03125 145.726562 Z M 146.03125 134.726562 "/>
<g style="fill:rgb(0%,0%,100%);fill-opacity:1;">
  <use xlink:href="#glyph0-2" x="146.03125" y="143.389648"/>
</g>
<path style="fill:none;stroke-width:1.2;stroke-linecap:butt;stroke-linejoin:miter;stroke:rgb(0%,0%,0%);stroke-opacity:1;stroke-miterlimit:10;" d="M 165.746094 149.128906 L 181.816406 139.105469 "/>
<path style="fill:none;stroke-width:1.2;stroke-linecap:butt;stroke-linejoin:miter;stroke:rgb(0%,0%,0%);stroke-opacity:1;stroke-miterlimit:10;" d="M 181.816406 139.105469 L 198.53125 148.011719 "/>
<path style="fill:none;stroke-width:1.2;stroke-linecap:butt;stroke-linejoin:miter;stroke:rgb(0%,0%,0%);stroke-opacity:1;stroke-miterlimit:10;" d="M 198.53125 148.011719 L 199.179688 166.941406 "/>
<path style="fill:none;stroke-width:1.2;stroke-linecap:butt;stroke-linejoin:miter;stroke:rgb(0%,0%,0%);stroke-opacity:1;stroke-miterlimit:10;" d="M 203.050781 149.75 L 203.566406 164.894531 "/>
<path style="fill:none;stroke-width:1.2;stroke-linecap:butt;stroke-linejoin:miter;stroke:rgb(0%,0%,0%);stroke-opacity:1;stroke-miterlimit:10;" d="M 214.601562 137.988281 L 198.53125 148.011719 "/>
<path style="fill:none;stroke-width:1.2;stroke-linecap:butt;stroke-linejoin:miter;stroke:rgb(0%,0%,0%);stroke-opacity:1;stroke-miterlimit:10;" d="M 199.179688 166.941406 L 215.894531 175.84375 "/>
<path style="fill:none;stroke-width:1.2;stroke-linecap:butt;stroke-linejoin:miter;stroke:rgb(0%,0%,0%);stroke-opacity:1;stroke-miterlimit:10;" d="M 215.894531 175.84375 L 231.964844 165.820312 "/>
<path style="fill:none;stroke-width:1.2;stroke-linecap:butt;stroke-linejoin:miter;stroke:rgb(0%,0%,0%);stroke-opacity:1;stroke-miterlimit:10;" d="M 215.144531 171.0625 L 228 163.042969 "/>
<path style="fill:none;stroke-width:1.2;stroke-linecap:butt;stroke-linejoin:miter;stroke:rgb(0%,0%,0%);stroke-opacity:1;stroke-miterlimit:10;" d="M 215.894531 175.84375 L 216.21875 185.308594 "/>
<path style="fill:none;stroke-width:1.2;stroke-linecap:butt;stroke-linejoin:miter;stroke:rgb(100%,0%,0%);stroke-opacity:1;stroke-miterlimit:10;" d="M 216.21875 185.308594 L 216.539062 194.773438 "/>
<path style="fill:none;stroke-width:1.2;stroke-linecap:butt;stroke-linejoin:miter;stroke:rgb(0%,0%,0%);stroke-opacity:1;stroke-miterlimit:10;" d="M 231.964844 165.820312 L 231.316406 146.890625 "/>
<path style="fill:none;stroke-width:1.2;stroke-linecap:butt;stroke-linejoin:miter;stroke:rgb(0%,0%,0%);stroke-opacity:1;stroke-miterlimit:10;" d="M 231.964844 165.820312 L 240.320312 170.273438 "/>
<path style="fill:none;stroke-width:1.2;stroke-linecap:butt;stroke-linejoin:miter;stroke:rgb(100%,0%,0%);stroke-opacity:1;stroke-miterlimit:10;" d="M 240.320312 170.273438 L 248.679688 174.726562 "/>
<path style="fill:none;stroke-width:1.2;stroke-linecap:butt;stroke-linejoin:miter;stroke:rgb(0%,0%,0%);stroke-opacity:1;stroke-miterlimit:10;" d="M 231.316406 146.890625 L 214.601562 137.988281 "/>
<path style="fill:none;stroke-width:1.2;stroke-linecap:butt;stroke-linejoin:miter;stroke:rgb(0%,0%,0%);stroke-opacity:1;stroke-miterlimit:10;" d="M 227.550781 149.933594 L 214.179688 142.8125 "/>
<path style="fill:none;stroke-width:1.2;stroke-linecap:butt;stroke-linejoin:miter;stroke:rgb(100%,0%,0%);stroke-opacity:1;stroke-miterlimit:10;" d="M 248.679688 174.726562 L 256.714844 169.714844 "/>
<path style="fill:none;stroke-width:1.2;stroke-linecap:butt;stroke-linejoin:miter;stroke:rgb(0%,0%,0%);stroke-opacity:1;stroke-miterlimit:10;" d="M 256.714844 169.714844 L 264.75 164.703125 "/>
<path style=" stroke:none;fill-rule:nonzero;fill:rgb(100%,100%,100%);fill-opacity:1;" d="M 244.679688 169.226562 L 252.679688 169.226562 L 252.679688 180.226562 L 244.679688 180.226562 Z M 244.679688 169.226562 "/>
<g style="fill:rgb(100%,0%,0%);fill-opacity:1;">
  <use xlink:href="#glyph0-1" x="244.679688" y="177.889648"/>
</g>
<path style="fill:none;stroke-width:1.2;stroke-linecap:butt;stroke-linejoin:miter;stroke:rgb(100%,0%,0%);stroke-opacity:1;stroke-miterlimit:10;" d="M 216.539062 194.773438 L 208.503906 199.785156 "/>
<path style="fill:none;stroke-width:1.2;stroke-linecap:butt;stroke-linejoin:miter;stroke:rgb(0%,0%,0%);stroke-opacity:1;stroke-miterlimit:10;" d="M 208.503906 199.785156 L 200.472656 204.796875 "/>
<path style=" stroke:none;fill-rule:nonzero;fill:rgb(100%,100%,100%);fill-opacity:1;" d="M 212.539062 189.273438 L 220.539062 189.273438 L 220.539062 200.273438 L 212.539062 200.273438 Z M 212.539062 189.273438 "/>
<g style="fill:rgb(100%,0%,0%);fill-opacity:1;">
  <use xlink:href="#glyph0-1" x="212.539062" y="197.936523"/>
</g>
<path style="fill:none;stroke-width:1.2;stroke-linecap:butt;stroke-linejoin:miter;stroke:rgb(0%,0%,0%);stroke-opacity:1;stroke-miterlimit:10;" d="M 149.433594 119.328125 L 141.074219 114.878906 "/>
<path style="fill:none;stroke-width:1.2;stroke-linecap:butt;stroke-linejoin:miter;stroke:rgb(100%,0%,0%);stroke-opacity:1;stroke-miterlimit:10;" d="M 141.074219 114.878906 L 132.714844 110.425781 "/>
<path style="fill:none;stroke-width:1.2;stroke-linecap:butt;stroke-linejoin:miter;stroke:rgb(0%,0%,0%);stroke-opacity:1;stroke-miterlimit:10;" d="M 147.335938 123.261719 L 138.980469 118.808594 "/>
<path style="fill:none;stroke-width:1.2;stroke-linecap:butt;stroke-linejoin:miter;stroke:rgb(100%,0%,0%);stroke-opacity:1;stroke-miterlimit:10;" d="M 138.980469 118.808594 L 130.621094 114.359375 "/>
<path style="fill:none;stroke-width:1.2;stroke-linecap:butt;stroke-linejoin:miter;stroke:rgb(0%,0%,0%);stroke-opacity:1;stroke-miterlimit:10;" d="M 148.382812 121.296875 L 164.453125 111.273438 "/>
<path style=" stroke:none;fill-rule:nonzero;fill:rgb(100%,100%,100%);fill-opacity:1;" d="M 123.667969 106.890625 L 131.667969 106.890625 L 131.667969 117.890625 L 123.667969 117.890625 Z M 123.667969 106.890625 "/>
<g style="fill:rgb(100%,0%,0%);fill-opacity:1;">
  <use xlink:href="#glyph0-1" x="123.667969" y="115.553711"/>
</g>
<path style="fill:none;stroke-width:1.2;stroke-linecap:butt;stroke-linejoin:miter;stroke:rgb(0%,0%,0%);stroke-opacity:1;stroke-miterlimit:10;" d="M 164.453125 111.273438 L 172.488281 106.261719 "/>
<path style="fill:none;stroke-width:1.2;stroke-linecap:butt;stroke-linejoin:miter;stroke:rgb(20%,80%,80%);stroke-opacity:1;stroke-miterlimit:10;" d="M 172.488281 106.261719 L 180.523438 101.25 "/>
<path style="fill:none;stroke-width:1.2;stroke-linecap:butt;stroke-linejoin:miter;stroke:rgb(0%,0%,0%);stroke-opacity:1;stroke-miterlimit:10;" d="M 164.453125 111.273438 L 159.441406 103.238281 "/>
<path style="fill:none;stroke-width:1.2;stroke-linecap:butt;stroke-linejoin:miter;stroke:rgb(20%,80%,80%);stroke-opacity:1;stroke-miterlimit:10;" d="M 159.441406 103.238281 L 154.429688 95.203125 "/>
<path style="fill:none;stroke-width:1.2;stroke-linecap:butt;stroke-linejoin:miter;stroke:rgb(0%,0%,0%);stroke-opacity:1;stroke-miterlimit:10;" d="M 164.453125 111.273438 L 169.464844 119.308594 "/>
<path style="fill:none;stroke-width:1.2;stroke-linecap:butt;stroke-linejoin:miter;stroke:rgb(20%,80%,80%);stroke-opacity:1;stroke-miterlimit:10;" d="M 169.464844 119.308594 L 174.480469 127.34375 "/>
<path style=" stroke:none;fill-rule:nonzero;fill:rgb(100%,100%,100%);fill-opacity:1;" d="M 177.523438 95.75 L 183.523438 95.75 L 183.523438 106.75 L 177.523438 106.75 Z M 177.523438 95.75 "/>
<g style="fill:rgb(20%,80%,80%);fill-opacity:1;">
  <use xlink:href="#glyph0-3" x="177.523438" y="104.413086"/>
</g>
<path style=" stroke:none;fill-rule:nonzero;fill:rgb(100%,100%,100%);fill-opacity:1;" d="M 148.429688 89.703125 L 154.429688 89.703125 L 154.429688 100.703125 L 148.429688 100.703125 Z M 148.429688 89.703125 "/>
<g style="fill:rgb(20%,80%,80%);fill-opacity:1;">
  <use xlink:href="#glyph0-3" x="148.429688" y="98.366211"/>
</g>
<path style=" stroke:none;fill-rule:nonzero;fill:rgb(100%,100%,100%);fill-opacity:1;" d="M 171.480469 121.84375 L 177.480469 121.84375 L 177.480469 132.84375 L 171.480469 132.84375 Z M 171.480469 121.84375 "/>
<g style="fill:rgb(20%,80%,80%);fill-opacity:1;">
  <use xlink:href="#glyph0-3" x="171.480469" y="130.506836"/>
</g>
</g>
</svg>

<svg xmlns="http://www.w3.org/2000/svg" xmlns:xlink="http://www.w3.org/1999/xlink" width="300pt" height="300pt" viewBox="0 0 300 300"><defs><symbol overflow="visible"><path d="M.453 1.594v-7.938h4.5v7.938zm.5-.5h3.5v-6.938h-3.5zm0 0"/></symbol><symbol overflow="visible" id="a"><path d="M3.547-5.953c-.65 0-1.164.242-1.547.72-.375.48-.563 1.13-.563 1.952 0 .835.188 1.49.563 1.967.383.48.898.72 1.547.72.644 0 1.156-.24 1.53-.72.376-.476.564-1.132.564-1.968 0-.822-.187-1.474-.562-1.954-.375-.477-.887-.72-1.53-.72zm0-.734c.914 0 1.648.312 2.203.937.55.617.828 1.438.828 2.47 0 1.042-.277 1.87-.828 2.483-.555.617-1.29.922-2.203.922-.93 0-1.668-.305-2.22-.922C.774-1.41.5-2.237.5-3.28c0-1.033.273-1.853.828-2.47.55-.625 1.29-.938 2.22-.938zm0 0"/></symbol><symbol overflow="visible" id="b"><path d="M.89-6.563H2.08l2.906 5.485v-5.484h.86V0H4.656L1.75-5.484V0H.89zm0 0"/></symbol><symbol overflow="visible" id="c"><path d="M.89-6.563h3.766v.75h-2.89v1.938h2.61v.734h-2.61V0H.89zm0 0"/></symbol></defs><g><path fill="#fff" d="M0 0h300v300H0z"/><path d="M35.25 172.535l8.36 4.453" stroke-width="1.2" stroke="#000" stroke-miterlimit="10" fill="none"/><path d="M43.61 176.988l8.355 4.453M51.965 181.44L60 176.43" stroke-width="1.2" stroke="#f00" stroke-miterlimit="10" fill="none"/><path d="M60 176.43l8.035-5.012" stroke-width="1.2" stroke="#000" stroke-miterlimit="10" fill="none"/><path d="M47.965 175.94h8v11h-8zm0 0" fill="#fff"/><use xlink:href="#a" x="47.965" y="184.604" fill="#f00"/><path d="M68.035 171.418l-.644-18.93M72.426 169.37l-.52-15.143M84.75 180.32l-16.715-8.902M67.39 152.488l16.07-10.023M83.46 142.465l16.716 8.902M83.035 147.285l13.375 7.125M100.176 151.367l.644 18.93M100.176 151.367l16.07-10.023M100.82 170.297L84.75 180.32M96.855 167.52L84 175.54M116.246 141.344l16.715 8.906M115.82 146.168l13.375 7.125M132.96 150.25l8.036-5.012" stroke-width="1.2" stroke="#000" stroke-miterlimit="10" fill="none"/><path d="M140.996 145.238l8.035-5.01M149.03 140.227l8.36 4.45" stroke-width="1.2" stroke="#00f" stroke-miterlimit="10" fill="none"/><path d="M157.39 144.676l8.356 4.453" stroke-width="1.2" stroke="#000" stroke-miterlimit="10" fill="none"/><path d="M149.03 140.227l-.323-9.465" stroke-width="1.2" stroke="#00f" stroke-miterlimit="10" fill="none"/><path d="M148.707 130.762l-.324-9.465" stroke-width="1.2" stroke="#000" stroke-miterlimit="10" fill="none"/><path d="M146.03 134.727h7v11h-7zm0 0" fill="#fff"/><use xlink:href="#b" x="146.031" y="143.39" fill="#00f"/><path d="M165.746 149.13l16.07-10.025M181.816 139.105l16.715 8.907M198.53 148.012l.65 18.93M203.05 149.75l.516 15.145M214.602 137.988l-16.07 10.024M199.18 166.94l16.715 8.904M215.895 175.844l16.07-10.024M215.145 171.063l12.855-8.02M215.895 175.844l.324 9.465" stroke-width="1.2" stroke="#000" stroke-miterlimit="10" fill="none"/><path d="M216.22 185.31l.32 9.463" stroke-width="1.2" stroke="#f00" stroke-miterlimit="10" fill="none"/><path d="M231.965 165.82l-.65-18.93M231.965 165.82l8.355 4.453" stroke-width="1.2" stroke="#000" stroke-miterlimit="10" fill="none"/><path d="M240.32 170.273l8.36 4.454" stroke-width="1.2" stroke="#f00" stroke-miterlimit="10" fill="none"/><path d="M231.316 146.89l-16.714-8.902M227.55 149.934l-13.37-7.12" stroke-width="1.2" stroke="#000" stroke-miterlimit="10" fill="none"/><path d="M248.68 174.727l8.035-5.012" stroke-width="1.2" stroke="#f00" stroke-miterlimit="10" fill="none"/><path d="M256.715 169.715l8.035-5.012" stroke-width="1.2" stroke="#000" stroke-miterlimit="10" fill="none"/><path d="M244.68 169.227h8v11h-8zm0 0" fill="#fff"/><use xlink:href="#a" x="244.68" y="177.89" fill="#f00"/><path d="M216.54 194.773l-8.036 5.012" stroke-width="1.2" stroke="#f00" stroke-miterlimit="10" fill="none"/><path d="M208.504 199.785l-8.03 5.012" stroke-width="1.2" stroke="#000" stroke-miterlimit="10" fill="none"/><path d="M212.54 189.273h8v11h-8zm0 0" fill="#fff"/><use xlink:href="#a" x="212.539" y="197.937" fill="#f00"/><path d="M149.434 119.328l-8.36-4.45" stroke-width="1.2" stroke="#000" stroke-miterlimit="10" fill="none"/><path d="M141.074 114.88l-8.36-4.454" stroke-width="1.2" stroke="#f00" stroke-miterlimit="10" fill="none"/><path d="M147.336 123.262l-8.356-4.453" stroke-width="1.2" stroke="#000" stroke-miterlimit="10" fill="none"/><path d="M138.98 118.81l-8.36-4.45" stroke-width="1.2" stroke="#f00" stroke-miterlimit="10" fill="none"/><path d="M148.383 121.297l16.07-10.024" stroke-width="1.2" stroke="#000" stroke-miterlimit="10" fill="none"/><path d="M123.668 106.89h8v11h-8zm0 0" fill="#fff"/><use xlink:href="#a" x="123.668" y="115.554" fill="#f00"/><path d="M164.453 111.273l8.035-5.01" stroke-width="1.2" stroke="#000" stroke-miterlimit="10" fill="none"/><path d="M172.488 106.262l8.035-5.012" stroke-width="1.2" stroke="#3cc" stroke-miterlimit="10" fill="none"/><path d="M164.453 111.273l-5.012-8.035" stroke-width="1.2" stroke="#000" stroke-miterlimit="10" fill="none"/><path d="M159.44 103.238l-5.01-8.035" stroke-width="1.2" stroke="#3cc" stroke-miterlimit="10" fill="none"/><path d="M164.453 111.273l5.012 8.036" stroke-width="1.2" stroke="#000" stroke-miterlimit="10" fill="none"/><path d="M169.465 119.31l5.015 8.034" stroke-width="1.2" stroke="#3cc" stroke-miterlimit="10" fill="none"/><path d="M177.523 95.75h6v11h-6zm0 0" fill="#fff"/><use xlink:href="#c" x="177.523" y="104.413" fill="#3cc"/><path d="M148.43 89.703h6v11h-6zm0 0" fill="#fff"/><use xlink:href="#c" x="148.43" y="98.366" fill="#3cc"/><path d="M171.48 121.844h6v11h-6zm0 0" fill="#fff"/><use xlink:href="#c" x="171.48" y="130.507" fill="#3cc"/></g></svg>
